src/assets/one_look/puzzles/5.svg

<svg viewBox="0 0 870 540" fill="none" xmlns="http://www.w3.org/2000/svg">
<rect x="3" y="3" width="864" height="533.4" rx="77" fill="white" stroke="#844EA5" stroke-width="6"/>
  <path d="m 421.72966,215.344 c -0.622,-6.262 -2.638,-12.306 -5.9,-17.689 -7.027,-12.433 -15.431,-29.073 -26.326,-52.655 v 0.016 c -10.892,23.582 -19.298,40.223 -26.328,52.656 -3.262,5.377 -5.279,11.415 -5.903,17.672 -1.127,8.934 1.267,17.956 6.676,25.155 2.944,3.432 6.549,6.234 10.601,8.24 4.051,2.006 8.466,3.174 12.979,3.435 0.61,0.053 1.273,0.085 1.984,0.085 0.712,0 1.348,-0.032 1.95,-0.085 4.517,-0.244 8.937,-1.405 12.99,-3.412 4.054,-2.007 7.657,-4.818 10.589,-8.263 5.413,-7.197 7.811,-16.219 6.688,-25.155 z" fill="#208abd" id="path168" />
  <path d="m 365.92932,207.836 c -1.498,4.076 -2.171,8.41 -1.978,12.749 0.343,4.8 0.803,10.024 4.616,15.387 3.204,4.363 7.705,7.604 12.859,9.259 4.6,1.666 9.811,2.189 11.54,0.413 0.574,-0.53 0.927,-1.256 0.99,-2.034 -0.041,-0.815 -0.396,-1.583 -0.99,-2.143 -2.077,-2.246 -6.131,-3.651 -7.528,-4.204 -3.328,-1.457 -6.266,-3.678 -8.573,-6.484 -2.492,-3.317 -3.962,-7.29 -4.228,-11.431 -0.234,-3.42 -0.253,-6.851 -0.057,-10.273 0.097,-1.172 0.304,-3.198 -0.934,-4.313 -0.365,-0.316 -0.799,-0.54 -1.267,-0.655 -0.469,-0.114 -0.957,-0.116 -1.426,-0.005 -1.567,0.402 -2.409,2.107 -3.024,3.734 z" fill="#95cae1" id="path170" />
  <path d="m 511.72966,215.344 c -0.622,-6.262 -2.638,-12.306 -5.9,-17.689 -7.027,-12.433 -15.431,-29.073 -26.326,-52.655 v 0.016 c -10.892,23.582 -19.298,40.223 -26.328,52.656 -3.262,5.377 -5.279,11.415 -5.903,17.672 -1.127,8.934 1.267,17.956 6.676,25.155 2.944,3.432 6.549,6.234 10.601,8.24 4.051,2.006 8.466,3.174 12.979,3.435 0.61,0.053 1.273,0.085 1.984,0.085 0.712,0 1.348,-0.032 1.95,-0.085 4.517,-0.244 8.937,-1.405 12.99,-3.412 4.054,-2.007 7.657,-4.818 10.589,-8.263 5.413,-7.197 7.811,-16.219 6.688,-25.155 z" fill="#208abd" id="path172" />
  <path d="m 455.92932,207.836 c -1.498,4.076 -2.171,8.41 -1.978,12.749 0.343,4.8 0.803,10.024 4.616,15.387 3.204,4.363 7.705,7.604 12.859,9.259 4.6,1.666 9.811,2.189 11.54,0.413 0.574,-0.53 0.927,-1.256 0.99,-2.034 -0.041,-0.815 -0.396,-1.583 -0.99,-2.143 -2.077,-2.246 -6.131,-3.651 -7.528,-4.204 -3.328,-1.457 -6.266,-3.678 -8.573,-6.484 -2.492,-3.317 -3.962,-7.29 -4.228,-11.431 -0.234,-3.42 -0.253,-6.851 -0.057,-10.273 0.097,-1.172 0.304,-3.198 -0.934,-4.313 -0.365,-0.316 -0.799,-0.54 -1.267,-0.655 -0.469,-0.114 -0.957,-0.116 -1.426,-0.005 -1.567,0.402 -2.409,2.107 -3.024,3.734 z" fill="#95cae1" id="path174" />
  <path d="m 421.72966,357.344 c -0.622,-6.262 -2.638,-12.306 -5.9,-17.689 -7.027,-12.433 -15.431,-29.073 -26.326,-52.655 v 0.016 c -10.892,23.582 -19.298,40.223 -26.328,52.656 -3.262,5.377 -5.279,11.415 -5.903,17.672 -1.127,8.934 1.267,17.956 6.676,25.155 2.944,3.432 6.549,6.234 10.601,8.24 4.051,2.006 8.466,3.174 12.979,3.435 0.61,0.053 1.273,0.085 1.984,0.085 0.712,0 1.348,-0.032 1.95,-0.085 4.517,-0.244 8.937,-1.405 12.99,-3.412 4.054,-2.007 7.657,-4.818 10.589,-8.263 5.413,-7.197 7.811,-16.219 6.688,-25.155 z" fill="#208abd" id="path176" />
  <path d="m 365.92932,349.836 c -1.498,4.076 -2.171,8.41 -1.978,12.749 0.343,4.8 0.803,10.024 4.616,15.387 3.204,4.363 7.705,7.604 12.859,9.259 4.6,1.666 9.811,2.189 11.54,0.413 0.574,-0.53 0.927,-1.256 0.99,-2.034 -0.041,-0.815 -0.396,-1.583 -0.99,-2.143 -2.077,-2.246 -6.131,-3.651 -7.528,-4.204 -3.328,-1.457 -6.266,-3.678 -8.573,-6.484 -2.492,-3.317 -3.962,-7.29 -4.228,-11.431 -0.234,-3.42 -0.253,-6.851 -0.057,-10.273 0.097,-1.172 0.304,-3.198 -0.934,-4.313 -0.365,-0.316 -0.799,-0.54 -1.267,-0.655 -0.469,-0.114 -0.957,-0.116 -1.426,-0.005 -1.567,0.402 -2.409,2.107 -3.024,3.734 z" fill="#95cae1" id="path178" />
  <path d="m 511.72966,357.344 c -0.622,-6.262 -2.638,-12.306 -5.9,-17.689 -7.027,-12.433 -15.431,-29.073 -26.326,-52.655 v 0.016 c -10.892,23.582 -19.298,40.223 -26.328,52.656 -3.262,5.377 -5.279,11.415 -5.903,17.672 -1.127,8.934 1.267,17.956 6.676,25.155 2.944,3.432 6.549,6.234 10.601,8.24 4.051,2.006 8.466,3.174 12.979,3.435 0.61,0.053 1.273,0.085 1.984,0.085 0.712,0 1.348,-0.032 1.95,-0.085 4.517,-0.244 8.937,-1.405 12.99,-3.412 4.054,-2.007 7.657,-4.818 10.589,-8.263 5.413,-7.197 7.811,-16.219 6.688,-25.155 z" fill="#208abd" id="path180" />
  <path d="m 455.92932,349.836 c -1.498,4.076 -2.171,8.41 -1.978,12.749 0.343,4.8 0.803,10.024 4.616,15.387 3.204,4.363 7.705,7.604 12.859,9.259 4.6,1.666 9.811,2.189 11.54,0.413 0.574,-0.53 0.927,-1.256 0.99,-2.034 -0.041,-0.815 -0.396,-1.583 -0.99,-2.143 -2.077,-2.246 -6.131,-3.651 -7.528,-4.204 -3.328,-1.457 -6.266,-3.678 -8.573,-6.484 -2.492,-3.317 -3.962,-7.29 -4.228,-11.431 -0.234,-3.42 -0.253,-6.851 -0.057,-10.273 0.097,-1.172 0.304,-3.198 -0.934,-4.313 -0.365,-0.316 -0.799,-0.54 -1.267,-0.655 -0.469,-0.114 -0.957,-0.116 -1.426,-0.005 -1.567,0.402 -2.409,2.107 -3.024,3.734 z" fill="#95cae1" id="path182" />
</svg>

<svg width="870" height="540" viewBox="0 0 870 540" fill="none" xmlns="http://www.w3.org/2000/svg">
<rect x="2.5" y="2.5" width="865" height="534.4" rx="77.5" fill="#F3F3F3" stroke="#83C1CA" stroke-width="5"/>
<path d="M421.73 357.344C421.108 351.082 419.092 345.038 415.83 339.655C408.803 327.222 400.399 310.582 389.504 287V287.016C378.612 310.598 370.206 327.239 363.176 339.672C359.914 345.049 357.897 351.087 357.273 357.344C356.146 366.278 358.54 375.3 363.949 382.499C366.893 385.931 370.498 388.733 374.55 390.739C378.601 392.745 383.016 393.913 387.529 394.174C388.139 394.227 388.802 394.259 389.513 394.259C390.225 394.259 390.861 394.227 391.463 394.174C395.98 393.93 400.4 392.769 404.453 390.762C408.507 388.755 412.11 385.944 415.042 382.499C420.455 375.302 422.853 366.28 421.73 357.344Z" fill="#208ABD"/>
<path d="M365.93 349.836C364.431 353.912 363.758 358.246 363.951 362.585C364.294 367.385 364.754 372.609 368.567 377.972C371.772 382.335 376.272 385.576 381.426 387.231C386.026 388.897 391.237 389.42 392.966 387.644C393.54 387.114 393.893 386.388 393.956 385.61C393.915 384.795 393.56 384.027 392.966 383.467C390.889 381.221 386.835 379.816 385.438 379.263C382.11 377.806 379.173 375.585 376.865 372.779C374.373 369.462 372.903 365.489 372.637 361.348C372.403 357.928 372.384 354.497 372.58 351.075C372.677 349.903 372.885 347.877 371.646 346.762C371.281 346.446 370.847 346.222 370.379 346.107C369.91 345.993 369.422 345.991 368.953 346.102C367.387 346.504 366.545 348.209 365.93 349.836Z" fill="#95CAE1"/>
<path d="M511.73 357.344C511.108 351.082 509.092 345.038 505.83 339.655C498.803 327.222 490.399 310.582 479.504 287V287.016C468.612 310.598 460.206 327.239 453.176 339.672C449.914 345.049 447.897 351.087 447.273 357.344C446.146 366.278 448.54 375.3 453.949 382.499C456.893 385.931 460.498 388.733 464.55 390.739C468.601 392.745 473.016 393.913 477.529 394.174C478.139 394.227 478.802 394.259 479.513 394.259C480.225 394.259 480.861 394.227 481.463 394.174C485.98 393.93 490.4 392.769 494.453 390.762C498.507 388.755 502.11 385.944 505.042 382.499C510.455 375.302 512.853 366.28 511.73 357.344Z" fill="#208ABD"/>
<path d="M455.93 349.836C454.431 353.912 453.758 358.246 453.951 362.585C454.294 367.385 454.754 372.609 458.567 377.972C461.772 382.335 466.272 385.576 471.426 387.231C476.026 388.897 481.237 389.42 482.966 387.644C483.54 387.114 483.893 386.388 483.956 385.61C483.915 384.795 483.56 384.027 482.966 383.467C480.889 381.221 476.835 379.816 475.438 379.263C472.11 377.806 469.173 375.585 466.865 372.779C464.373 369.462 462.903 365.489 462.637 361.348C462.403 357.928 462.384 354.497 462.58 351.075C462.677 349.903 462.885 347.877 461.646 346.762C461.281 346.446 460.847 346.222 460.379 346.107C459.91 345.993 459.422 345.991 458.953 346.102C457.387 346.504 456.545 348.209 455.93 349.836Z" fill="#95CAE1"/>
<path d="M421.73 215.344C421.108 209.082 419.092 203.038 415.83 197.655C408.803 185.222 400.399 168.582 389.504 145V145.016C378.612 168.598 370.206 185.239 363.176 197.672C359.914 203.049 357.897 209.087 357.273 215.344C356.146 224.278 358.54 233.3 363.949 240.499C366.893 243.931 370.498 246.733 374.55 248.739C378.601 250.745 383.016 251.913 387.529 252.174C388.139 252.227 388.802 252.259 389.513 252.259C390.225 252.259 390.861 252.227 391.463 252.174C395.98 251.93 400.4 250.769 404.453 248.762C408.507 246.755 412.11 243.944 415.042 240.499C420.455 233.302 422.853 224.28 421.73 215.344Z" fill="#208ABD"/>
<path d="M365.93 207.836C364.431 211.912 363.758 216.246 363.951 220.585C364.294 225.385 364.754 230.609 368.567 235.972C371.772 240.335 376.272 243.576 381.426 245.231C386.026 246.897 391.237 247.42 392.966 245.644C393.54 245.114 393.893 244.388 393.956 243.61C393.915 242.795 393.56 242.027 392.966 241.467C390.889 239.221 386.835 237.816 385.438 237.263C382.11 235.806 379.173 233.585 376.865 230.779C374.373 227.462 372.903 223.489 372.637 219.348C372.403 215.928 372.384 212.497 372.58 209.075C372.677 207.903 372.885 205.877 371.646 204.762C371.281 204.446 370.847 204.222 370.379 204.107C369.91 203.993 369.422 203.991 368.953 204.102C367.387 204.504 366.545 206.209 365.93 207.836Z" fill="#95CAE1"/>
<path d="M511.73 215.344C511.108 209.082 509.092 203.038 505.83 197.655C498.803 185.222 490.399 168.582 479.504 145V145.016C468.612 168.598 460.206 185.239 453.176 197.672C449.914 203.049 447.897 209.087 447.273 215.344C446.146 224.278 448.54 233.3 453.949 240.499C456.893 243.931 460.498 246.733 464.55 248.739C468.601 250.745 473.016 251.913 477.529 252.174C478.139 252.227 478.802 252.259 479.513 252.259C480.225 252.259 480.861 252.227 481.463 252.174C485.98 251.93 490.4 250.769 494.453 248.762C498.507 246.755 502.11 243.944 505.042 240.499C510.455 233.302 512.853 224.28 511.73 215.344Z" fill="#208ABD"/>
<path d="M455.93 207.836C454.431 211.912 453.758 216.246 453.951 220.585C454.294 225.385 454.754 230.609 458.567 235.972C461.772 240.335 466.272 243.576 471.426 245.231C476.026 246.897 481.237 247.42 482.966 245.644C483.54 245.114 483.893 244.388 483.956 243.61C483.915 242.795 483.56 242.027 482.966 241.467C480.889 239.221 476.835 237.816 475.438 237.263C472.11 235.806 469.173 233.585 466.865 230.779C464.373 227.462 462.903 223.489 462.637 219.348C462.403 215.928 462.384 212.497 462.58 209.075C462.677 207.903 462.885 205.877 461.646 204.762C461.281 204.446 460.847 204.222 460.379 204.107C459.91 203.993 459.422 203.991 458.953 204.102C457.387 204.504 456.545 206.209 455.93 207.836Z" fill="#95CAE1"/>
</svg>
